!!!COM: Sousa, John Phillip
!!!CDT: 1854/11/05/-1932/04/08/
!!!OTL: El Capitan March
!!!ODT: 1896///
!!!ONB: Arrangement for keyboard
**kern	**kern	**dynam
*staff2	*staff1	*staff1/2
*Ipiano	*Ipiano	*Ipiano
*>[I,A,A,B]	*>[I,A,A,B]	*>[I,A,A,B]
*>norep[I,A,B]	*>norep[I,A,B]	*>norep[I,A,B]
*>I	*>I	*>I
*clefF4	*clefG2	*clefG2
*k[]	*k[]	*k[]
*C:	*C:	*C:
*M6/8	*M6/8	*M6/8
*MM180	*MM180	*MM180
=1-	=1-	=1-
8EE'/ 8E'/L	8e'/ 8ee'/L	.
8DD'/ 8D'/	8d'/ 8dd'/	.
8CC'/ 8C'/J	8c'/ 8cc'/J	.
4EE-/ 4E-/	4e-/ 4ee-/	.
8CC/ 8C/	8c/ 8cc/	.
=2	=2	=2
4GG/ 4G/	4g\ 4gg\	.
8FF#/ 8F#/	8f#\ 8ff#\	.
4GG/ 4G/	4g\ 4gg\	.
8FFn/ 8Fn/	8fn\ 8ffn\	.
=3	=3	=3
8EE/ 8E/L	8e/ 8ee/L	.
8DD/ 8D/	8d/ 8dd/	.
8CC/ 8C/J	8c/ 8cc/J	.
4BBB/ 4BB/	4B/ 4b/	.
8CC/ 8C/	8c/ 8cc/	.
=4	=4	=4
4DD/ 4D/	4d/ 4dd/	.
8r	8r	.
4GG/ 4BB/ 4D/ 4G/	4g\ 4b\ 4dd\ 4gg\	.
8r	8g/	.
=5!|:	=5!|:	=5!|:
*>A	*>A	*>A
8C\L	8e/ 8g/ 8cc/	f
8r	8r	.
8E\ 8G\J	8r	.
8GG/L	4.dd\	p
8r	.	.
8E/ 8G/J	.	.
=6	=6	=6
8C\L	8ee\L	.
8r	8r	.
8E\ 8G\J	8cc\J	.
8GG/L	8ee\L	.
8r	8r	.
8E/ 8G/J	8ee\J	.
=7	=7	=7
8C\L	8cc\ 8ee\ 8gg\L	.
8r	8r	.
8E\ 8G\J	8cc\J	.
8GG/L	8ee\L	.
8r	8dd\	.
8E/ 8G/J	8cc\J	.
=8	=8	=8
8D\L	8b\ 8ff\L	.
8r	8r	.
8F\ 8G\J	8b\ 8ff\J	.
8GG/L	8b\ 8ff\L	.
8r	8r	.
8F/ 8G/J	8ff\J	.
=9	=9	=9
8D\L	8f/ 8b/ 8dd/	f
8r	8r	.
8F\ 8G\J	8r	.
8GG/L	4.ee\	p
8r	.	.
8F/ 8G/J	.	.
=10	=10	=10
8D\L	8ff\L	.
8r	8r	.
8F\ 8G\J	8dd\J	.
8GG/L	8ff\L	.
8r	8r	.
8F/ 8G/J	8ff\J	.
=11	=11	=11
8D\L	8b\ 8dd\ 8gg\L	.
8r	8r	.
8F\ 8G\J	8ff\J	.
8GG/L	8dd\L	.
8r	8cc\	.
8F/ 8G/J	8b\J	.
=12	=12	=12
8C\L	8cc\ 8ee\L	.
8r	8r	.
8E\ 8G\J	8ee\J	.
8GG/L	4ee\	.
8r	.	.
8E/ 8G/J	8ee\	.
=13	=13	=13
8AA\L	8cc\ 8ee\ 8aa\	.
8r	8r	.
8A\ 8c\ 8e\J	8r	.
8A\ 8c\ 8e\L	(4.cc\	.
8r	.	.
8A\ 8c\ 8e\J	.	.
=14	=14	=14
8E\ 8G#\ 8B\ 8e\L	4.b\	.
8r	.	.
8E\ 8G#\ 8B\ 8e\J	.	.
8A\ 8c\ 8e\L	4.a/)	.
8r	.	.
8A\ 8c\ 8e\J	.	.
=15	=15	=15
8AA\L	8cc\ 8ee\ 8aa\	.
8r	8r	.
8A\ 8c\ 8e\J	8r	.
8A\ 8c\ 8e\L	(4.cc\	.
8r	.	.
8A\ 8c\ 8e\J	.	.
=16	=16	=16
8E\ 8G#\ 8B\ 8e\L	4.b\	.
8r	.	.
8E\ 8G#\ 8B\ 8e\J	.	.
8A\ 8c\ 8e\L	4.a/)	.
8r	.	.
8A\ 8c\ 8e\J	.	.
=17	=17	=17
*^	*	*
4.r	8A\L	8cc\ 8ee\ 8aa\	.
.	8r	8r	.
.	8e\J	8r	.
4.c/	8c\L	(4.ee\	.
.	8r	.	.
.	8e\ 8a\J	.	.
=18	=18	=18	=18
8B/L	4.B\	4.dd\	.
8r	.	.	.
8d/ 8e/ 8g#/J	.	.	.
8A/L	4.A\	4.cc\	.
8r	.	.	.
8c/ 8e/ 8a/J	.	.	.
=19	=19	=19	=19
*	*	*^	*
8D/L	4.D\	4.b/	4r	.
8r	.	.	.	.
8B/ 8d/J	.	.	8g\	.
8E/L	4.E\	4.a/)	4r	.
8r	.	.	.	.
8c/ 8d/J	.	.	8f#\	.
*v	*v	*	*	*
*	*v	*v	*
=20	=20	=20
8G\ 8B\ 8d\L	[4.g/	.
8r	.	.
8G\ 8B\ 8d\J	.	.
4G\ 4B\ 4d\	4g/]	.
8r	8g/	.
=21:|!	=21:|!	=21:|!
*>B	*>B	*>B
8FF\ 8F\L	4.a\ 4.aa\	f
8r	.	.
8A\ 8c\J	.	.
8D\L	4.b\ 4.bb\	.
8r	.	.
8F\ 8G\ 8B\J	.	.
=22	=22	=22
8C\L	4.cc\ 4.ccc\	.
8r	.	.
8E\ 8G\ 8c\J	.	.
8AA\L	4.ee\ 4.eee\	.
8r	.	.
8E\ 8A\ 8c\J	.	.
=23	=23	=23
8EE\L	[2.gg\ [2.ggg\	.
8r	.	.
8G\ 8c\ 8e\J	.	.
8G\ 8c\ 8e\L	.	.
8r	.	.
8G\ 8c\ 8e\J	.	.
=24	=24	=24
8G\ 8c\ 8e\L	4gg\] 4ggg\]	.
8r	.	.
8G\ 8c\ 8e\J	8ee'\	.
8G\ 8c\ 8e\L	8ee'\L	.
8r	8dd'\	.
8G\ 8c\ 8e\J	8cc'\J	.
=25	=25	=25
8D\L	8b'/L	.
8r	8r	.
8F\ 8G\ 8B\J	8g/J	.
8GG\L	8b/L	.
8r	8r	.
8F\ 8G\ 8B\J	8g/J	.
=26	=26	=26
8D\L	4b\	.
8r	.	.
8F\ 8G\ 8B\J	8ff'\	.
8GG\L	8ff'\L	.
8r	8ee'\	.
8F\ 8G\ 8B\J	8dd'\J	.
=27	=27	=27
8C\L	8ee'\L	.
8r	8r	.
8E\ 8G\ 8c\J	8cc'\J	.
8GG\L	8ee'\L	.
8r	8r	.
8E\ 8G\ 8c\J	8cc'\J	.
=28	=28	=28
8C\L	4.ee\	.
8r	.	.
8E\ 8G\ 8c\J	.	.
8GG\L	4.g\ 4.gg\	f
8r	.	.
8E\ 8G\ 8c\J	.	.
=29	=29	=29
8FF\ 8F\L	4.a\ 4.aa\	.
8r	.	.
8A\ 8c\J	.	.
8D\L	4.b\ 4.bb\	.
8r	.	.
8F\ 8G\ 8B\J	.	.
=30	=30	=30
8C\L	4.cc\ 4.ccc\	.
8r	.	.
8E\ 8G\ 8c\J	.	.
8AA\L	4.ee\ 4.eee\	.
8r	.	.
8E\ 8A\ 8c\J	.	.
=31	=31	=31
8FF\L	[2.aa\ [2.aaa\	.
8r	.	.
8A\ 8d\ 8f\J	.	.
8A\ 8d\ 8f\L	.	.
8r	.	.
8A\ 8d\ 8f\J	.	.
=32	=32	=32
8F\L	4aa\] 4aaa\]	f
8r	.	.
8A\ 8d\ 8f\J	8cc\	.
4.F#\ 4.A\ 4.c\ 4.e\	8cc\L	.
.	8dd\	.
.	8dd#\J	.
=33	=33	=33
8G\ 8c\ 8en\L	8ee\L	.
8r	8r	.
8G\ 8c\ 8e\J	8cc\J	.
8G\ 8c\ 8e\L	8ee\L	.
8r	8r	.
8G\ 8c\ 8e\J	8cc\J	.
=34	=34	=34
8G\ 8c\ 8d\L	8cc\ 8dd\	.
8r	8r	.
8G\ 8c\ 8d\J	8r	.
8G\ 8B\ 8f\L	4.b\ 4.dd\ 4.gg\	.
8r	.	.
8G\ 8B\ 8f\J	.	.
=35	=35	=35
8c\ 8e\	8cc/L	.
8r	8g'/	.
8r	8g'/J	.
4r	8g'/L	.
.	8g'/	.
8C#\ 8c#\	8g'/J	.
=36	=36	=36
4E\ 4e\	8g\L	.
.	8g'\ 8gg'\	.
8D\ 8d\	8g'\ 8gg'\J	.
8G^\ 8B^\ 8d^\	8g'\ 8gg'\L	.
8r	8g\ 8gg\	.
8r	8g\ 8gg\J	.
=37	=37	=37
8FF\ 8F\L	4.a\ 4.aa\	f
8r	.	.
8A\ 8c\J	.	.
8D\L	4.b\ 4.bb\	.
8r	.	.
8F\ 8G\ 8B\J	.	.
=38	=38	=38
8C\L	4.cc\ 4.ccc\	.
8r	.	.
8E\ 8G\ 8c\J	.	.
8AA\L	4.ee\ 4.eee\	.
8r	.	.
8E\ 8A\ 8c\J	.	.
=39	=39	=39
8EE\L	[2.gg\ [2.ggg\	.
8r	.	.
8G\ 8c\ 8e\J	.	.
8G\ 8c\ 8e\L	.	.
8r	.	.
8G\ 8c\ 8e\J	.	.
=40	=40	=40
8G\ 8c\ 8e\L	4gg\] 4ggg\]	.
8r	.	.
8G\ 8c\ 8e\J	8ee'\	.
8G\ 8c\ 8e\L	8ee'\L	.
8r	8dd'\	.
8G\ 8c\ 8e\J	8cc'\J	.
=41	=41	=41
8D\L	8b/L	.
8r	8r	.
8F\ 8G\ 8B\J	8g/J	.
8GG\L	8b'/L	.
8r	8r	.
8F\ 8G\ 8B\J	8g/J	.
=42	=42	=42
8D\L	4b\	.
8r	.	.
8F\ 8G\ 8B\J	8ff'\	.
8GG\L	8ff'\L	.
8r	8ee'\	.
8F\ 8G\ 8B\J	8dd\J	.
=43	=43	=43
8C\L	8ee'\L	.
8r	8r	.
8E\ 8G\ 8c\J	8cc'\J	.
8GG\L	8ee'\L	.
8r	8r	.
8E\ 8G\ 8c\J	8cc'\J	.
=44	=44	=44
8C\L	4.ee\	.
8r	.	.
8E\ 8G\ 8c\J	.	.
8GG\L	4.g\ 4.gg\	f
8r	.	.
8E\ 8G\ 8c\J	.	.
=45	=45	=45
8FF\ 8F\L	4.a\ 4.aa\	.
8r	.	.
8A\ 8c\J	.	.
8D\L	4.b\ 4.bb\	.
8r	.	.
8F\ 8G\ 8B\J	.	.
=46	=46	=46
8C\L	4.cc\ 4.ccc\	.
8r	.	.
8E\ 8G\ 8c\J	.	.
8AA\L	4.ee\ 4.eee\	.
8r	.	.
8E\ 8A\ 8c\J	.	.
=47	=47	=47
8FF\L	[2.aa\ [2.aaa\	.
8r	.	.
8A\ 8d\ 8f\J	.	.
8A\ 8d\ 8f\L	.	.
8r	.	.
8A\ 8d\ 8f\J	.	.
=48	=48	=48
8F\L	4aa\] 4aaa\]	.
8r	.	.
8A\ 8d\ 8f\J	8cc\	.
4.F#\ 4.A\ 4.c\ 4.e\	8cc\L	.
.	8dd\	<
.	8dd#\J	.
=49	=49	=49
8G\ 8c\ 8en\L	8ee\L	.
8r	8r	.
8G\ 8c\ 8e\J	8cc\J	.
8G\ 8c\ 8e\L	8ee\L	.
8r	8r	.
8G\ 8c\ 8e\J	8cc\J	.
=50	=50	=50
8G\ 8c\ 8d\L	8cc\ 8dd\	.
8r	8r	.
8G\ 8c\ 8d\J	8r	.
8G\ 8B\ 8f\L	4.b\ 4.dd\ 4.gg\	.
8r	.	.
8G\ 8B\ 8f\J	.	.
=51	=51	=51
8c\ 8e\	8cc/L	.
8r	8g/	.
8r	8g/J	.
4r	8g/L	.
.	8g/	.
8GG/ 8BB/ 8D/ 8G/	8f/ 8g/ 8b/J	.
=52	=52	=52
4C\ 4E\ 4G\	4e/ 4g/ 4cc/	.
8r	8r	.
4CC/ 4C/	4e/ 4g/ 4cc/	.
8r	8c/	.
=53	=53	=53
*k[b-]	*k[b-]	*k[b-]
*M2/4	*M2/4	*M2/4
*MM144	*MM144	*MM144
8F\L	8.f/ 8.a/L	p
8A\ 8c\J	.	.
.	16e/ 16a/Jk	.
8C\L	8.e/ 8.a/L	.
8A\ 8c\J	.	.
.	16d/ 16a/Jk	.
=54	=54	=54
8F\L	8d/ 8a/L	.
8A\ 8c\J	8e/ 8a/	.
8C\L	8d/ 8a/	.
8A\ 8c\J	8d-/ 8a/J	.
=55	=55	=55
8F\L	16c/ (16a/LL	<
.	16g#/J	.
8A\ 8c\J	8a/J)	.
8C\L	8r	.
8A\ 8c\J	8a\ 8ff\ 8aa\	.
=56	=56	=56
8F\L	4.a\ 4.ff\ 4.aa\	.
8A\ 8c\J	.	.
8C\L	.	.
8A\ 8c\J	8a/	.
=57	=57	=57
8G\L	16e/ (16b-/LL	.
.	16a/J	.
8B-\ 8c\ 8e\J	8b-/J)	.
8C\L	8r	.
8B-\ 8c\ 8e\J	8b-\ 8gg\ 8bb-\	.
=58	=58	=58
8G\L	4.b-\ 4.gg\ 4.bb-\	.
8B-\ 8c\ 8e\J	.	.
8C\L	.	.
8B-\ 8c\ 8e\J	8g/ 8b-/	.
=59	=59	=59
8F\L	16a\ (16cc\LL	.
.	16bn\J	.
8A\ 8c\ 8f\J	8cc\J)	.
8C\L	8r	.
8A\ 8c\J	8cc\ 8aa\ 8ccc\	.
=60	=60	=60
8F\L	4.cc\ 4.aa\ (4.ccc\	<
8A\ 8c\J	.	.
4C^\ 4B-^\ 4c^\	.	.
.	8b-\ 8gg\ 8bb-\)	>
=61	=61	=61
8F^\L	8.a^\ 8.ff^\ 8.aa^\	.
8A\ 8c\J	.	.
.	16e/ 16a/LK	.
8C\L	8.e/ 8.a/	.
8A\ 8c\J	.	.
.	16d/ 16a/Jk	.
=62	=62	=62
8F^\L	8d/ 8a/L	.
8A\ 8c\J	8e/ 8a/	.
8C\L	8d/ 8a/	.
8A\ 8c\J	8d-/ 8a/J	.
=63	=63	=63
8F\L	(16c/ 16a/LL	.
.	16g#/J	.
8A\ 8c\J	8a/J)	.
8C\L	8r	.
8A\ 8c\J	8a\ 8ff\ 8aa\	.
=64	=64	=64
8F\L	4.a\ 4.ff\ 4.aa\	.
8A\ 8c\J	.	.
8C\L	.	.
8A\ 8c\J	8f/ 8a/	.
=65	=65	=65
8GG\L	16e\ (16cc\LL	.
.	16bn\J	.
8E\ 8G\ 8c\J	8cc\J)	.
8GG\L	8r	.
8E\ 8G\ 8c\J	8cc\	.
=66	=66	=66
*	*^	*
8GG\L	(16bn/LL	4f\	<
.	16a/J	.	.
8F\ 8G\ 8Bn\J	8b/J)	.	.
8GG\L	8r	4r	.
8F\ 8G\ 8B\J	8f/ 8b/	.	.
*	*v	*v	*
=67	=67	=67
8C\ 8E\ 8G\ 8c\	8e/ 8cc/	.
8r	8r	.
(B-q/	(bb-q/	.
4c\)	4ccc\)	.
=68	=68	=68
(BB-q/	b-q/	.
4C^/)	4cc^\	.
4CC^/ 4C^/	4cc^\ 4ee^\ 4bb-^\ 4ccc^\	.
=69	=69	=69
8F^\L	8.f^/ 8.a^/L	p
8A\ 8c\J	.	.
.	16e/ 16a/Jk	.
8C\L	8.e/ 8.a/L	.
8A\ 8c\J	.	.
.	16d/ 16a/Jk	.
=70	=70	=70
8F^\L	8d/ 8a/L	.
8A\ 8c\J	8e/ 8a/	.
8C\L	8d/ 8a/	.
8A\ 8c\J	8d-/ 8a/J	.
=71	=71	=71
8F^\L	16c/ (16a/LL	.
.	16g#/J	.
8A\ 8c\J	8a/J)	.
8C\L	8r	.
8A\ 8c\J	8a\ 8ff\ 8aa\	.
=72	=72	=72
*	*^	*
8F\L	4.a\ 4.ff\ 4.aa\	8r	.
8A\ 8c\J	.	16f\ 16a\LL	.
.	.	16f\ 16a\JJ	.
8C\L	.	8f\ 8a\L	.
8A\ 8c\J	8a/	8f\J	.
*	*v	*v	*
=73	=73	=73
8G\L	16e/ (16b-/LL	.
.	16a/J	.
8B-\ 8c\ 8e\J	8b-/J)	.
8C\L	8r	.
8B-\ 8c\ 8e\J	8b-\ 8gg\ 8bb-\	.
=74	=74	=74
*	*^	*
8G\L	4.b-\ 4.gg\ 4.bb-\	8r	.
8B-\ 8c\ 8e\J	.	16g\ 16b-\LL	.
.	.	16g\ 16b-\JJ	.
8C\L	.	8g\ 8b-\L	.
8B-\ 8c\ 8e\J	8b-/	8g\J	.
*	*v	*v	*
=75	=75	=75
8F\L	16a\ (16cc\LL	.
.	16bn\J	.
8A\ 8c\ 8f\J	8cc\J)	.
8C\L	8r	.
8A\ 8c\J	8cc\ 8aa\ 8ccc\	.
=76	=76	=76
8F\L	4.cc\ 4.aa\ (4.ccc\	>
8A\ 8c\J	.	.
4C^\ 4B-^\ 4c^\	.	.
.	8b-\ 8gg\ 8bb-\)	.
=77	=77	=77
8F^\L	8.a^\ 8.ff^\ 8.aa^\	.
8A\ 8c\J	.	.
.	16e/ 16a/LK	.
8C\L	8.e/ 8.a/	.
8A\ 8c\J	.	.
.	16d/ 16a/Jk	.
=78	=78	=78
8F\L	8d/ 8a/L	.
8A\ 8c\J	8e/ 8a/	.
8C\L	8d/ 8a/	.
8A\ 8c\J	8d-/ 8a/J	.
=79	=79	=79
8F\L	16c/ (16a/LL	.
.	16g#/J	.
8A\ 8c\J	8a/J)	.
8C\L	8r	.
8A\ 8c\J	8a\ 8ff\ 8aa\	.
=80	=80	=80
*	*^	*
8F\L	4.a\ 4.ff\ 4.aa\	8r	.
8A\ 8c\J	.	16f\ 16a\LL	.
.	.	16f\ 16a\JJ	.
8C\L	.	8f\ 8a\L	.
8A\ 8c\J	8a/	8f\J	.
*	*v	*v	*
=81	=81	=81
8E\L	16g#/ (16bn/LL	.
.	16a#/J	.
8G#\ 8d\J	8b/J)	.
8E\L	8r	.
8G#\ 8d\J	8g#/ 8b/	.
=82	=82	=82
8E\L	4g#/ 4bn/	.
8G#\ 8d\J	.	.
8E\L	4e/ 4ee/	.
8G#\ 8d\J	.	.
=83	=83	=83
8AA\L	2e/ 2a/ 2cc#/ 2ee/	<
8E\ 8A\ 8c#\	.	.
8E\ 8A\ 8c#\	.	.
8E\ 8A\ 8c#\J	.	.
=84	=84	=84
8AAA/ 8AA/L	16a\ 16dd\ (16ff\LL	.
.	16aa\	.
8AA/ 8D/ 8F/ 8A/	16ff\	.
.	16aa\JJ	.
8AA/ 8D/ 8F/ 8A/	16ff\LL	.
.	16aa\	.
8AA/ 8D/ 8F/ 8A/J	16ff\	.
.	16aa\JJ)	.
=85	=85	=85
8AA\ 8C#\ 8E\ 8A\L	(16ee\LL	.
.	16aa\	.
8AA\ 8C#\ 8E\ 8A\	16ee\	.
.	16aa\JJ	.
8AA\ 8C#\ 8E\ 8A\	16ee\LL	.
.	16aa\	.
8AA\ 8C#\ 8E\ 8A\J	16ee\	.
.	16aa\JJ)	.
=86	=86	=86
8AAA/ 8AA/L	16a\ 16dd\ (16ff\LL	.
.	16aa\	.
8AA/ 8D/ 8F/ 8A/	16ff\	.
.	16aa\JJ	.
8AA/ 8D/ 8F/ 8A/	16ff\LL	.
.	16aa\	.
8AA/ 8D/ 8F/ 8A/J	16ff\	.
.	16aa\JJ	.
=87	=87	=87
8AA\ 8C#\ 8E\ 8A\L	16ee\LL	.
.	16aa\	.
8AA\ 8D\ 8F\ 8A\	16ff\	.
.	16aa\JJ	.
8AA\ 8C#\ 8E\ 8A\	16ee\LL	.
.	16aa\	.
8AA\ 8D\ 8F\ 8A\J	16ff\	.
.	16aa\JJ	.
=88	=88	=88
8AA\ 8C#\ 8E\ 8A\L	16ee\LL	.
.	16aa\	.
8AA\ 8D\ 8F\ 8A\	16ff\	.
.	16aa\JJ	.
8AA\ 8C#\ 8E\ 8A\	16ee\LL	.
.	16aa\	.
8AA\ 8D\ 8F\ 8A\J	16ff\	.
.	16aa\JJ	.
=89	=89	=89
4AA\ 4C#\ 4E\ 4A\	4a\ 4cc#\ 4ee\)	.
[4AAA/ [4AA/	[4ee\ [4aa\ [4ccc#\ [4eee\	.
=90	=90	=90
4AAA/] 4AA/]	4ee\] 4aa\] 4ccc#\] 4eee\]	<
4GGG/ 4GG/	4ee\ 4bb-\ 4ccc#\ 4eee\	.
=91	=91	=91
8FFF\ 8FF\L	2ff\ 2aa\ 2ccc\ 2fff\	f
8A\ 8c\J	.	.
8C\L	.	.
8A\ 8c\J	.	.
=92	=92	=92
8F\L	4ee\ 4eee\	.
8A\ 8c\J	.	.
8C\L	4a\ 4aa\	.
8A\ 8c\J	.	.
=93	=93	=93
8F\L	8dd\ 8ddd\L	.
8A\ 8c\J	8a\ 8aa\J	.
8C\L	4a\ 4aa\	.
8A\ 8c\J	.	.
=94	=94	=94
8F\L	8r	.
8A\ 8c\J	8a\ 8aa\L	.
8C\L	8g\ 8gg\	.
8A\ 8c\J	8f\ 8ff\J	.
=95	=95	=95
8GG\ 8G\L	2b-\ 2bb-\	.
8B-\ 8c\ 8e\J	.	.
8C\L	.	.
8B-\ 8c\ 8e\J	.	.
=96	=96	=96
8G\L	4a\ 4aa\	.
8B-\ 8c\ 8e\J	.	.
8C\L	4g\ 4gg\	.
8B-\ 8c\ 8e\J	.	.
=97	=97	=97
8F\L	8a\ 8aa\L	.
8A\ 8c\ 8f\J	8cc\ 8ccc\J	.
8C\L	4cc\ 4ccc\	.
8A\ 8c\J	.	.
=98	=98	=98
2C\ 2B-\ 2c\	8r	.
.	8ccc\L	.
.	8gg\ 8ggg\	.
.	8ccc\J	.
=99	=99	=99
8F^\L	2ff\ 2fff\	.
8A\ 8c\J	.	.
8C\L	.	.
8A\ 8c\J	.	.
=100	=100	=100
8F^\L	4ee\ 4eee\	.
8A\ 8c\J	.	.
8C\L	4a\ 4aa\	.
8A\ 8c\J	.	.
=101	=101	=101
8F^\L	8dd\ 8ddd\L	.
8A\ 8c\J	8a\ 8aa\J	.
8C\L	4a\ 4aa\	.
8A\ 8c\J	.	.
=102	=102	=102
8F\L	8r	.
8A\ 8c\J	8a\ 8aa\L	.
8C\L	8g\ 8gg\	.
8A\ 8c\J	8f\ 8ff\J	.
=103	=103	=103
*	*^	*
8BB-\L	[2ddd-/	8dd-\L	.
8F\ 8B-\ 8d-\J	.	16dd-\ 16ff\L	.
.	.	16dd-\ 16ff\JJ	.
8BB-\L	.	8dd-\ 8ff\L	.
8F\ 8B-\ 8d-\J	.	8dd-\ 8ff\J	.
=104	=104	=104	=104
8C\L	8ddd-/]	8r	.
8B-\ 8c\J	4.r	8cc'\ 8ee'\L	.
8C\L	.	8cc'\ 8gg'\	.
8G\ 8B-\ 8c\J	.	8cc'\ 8ccc'\J	.
*	*v	*v	*
=105	=105	=105
8F\ 8A\ 8c\	8a\ 8ff\L	.
8FF/ 8F/L	16a\ 16cc\ 16ff\L	.
.	16a\ 16cc\ 16ff\JJ	.
8CC/ 8C/	8a\ 8cc\ 8ff\L	.
8AAA/ 8AA/J	8a\ 8cc\ 8ff\J	.
=106	=106	=106
8FFF/ 8FF/	8a\ 8cc\ 8ff\L	<
8r	8f^\ 8ff^\	.
4r	8a^\ 8aa^\	.
.	8cc^\ 8ccc^\J	.
=107	=107	=107
8FF\ 8F\L	2ff\ 2fff\	fff
8A\ 8c\J	.	.
8C\L	.	.
8A\ 8c\J	.	.
=108	=108	=108
8F\L	4ee\ 4eee\	.
8A\ 8c\J	.	.
8C\L	4a\ 4aa\	.
8A\ 8c\J	.	.
=109	=109	=109
8F\L	8dd\ 8ddd\L	.
8A\ 8c\J	8a\ 8aa\J	.
8C\L	4a\ 4aa\	.
8A\ 8c\J	.	.
=110	=110	=110
8F\L	8r	.
8A\ 8c\J	8a\ 8aa\L	.
8C\L	8g\ 8gg\	.
8A\ 8c\J	8f\ 8ff\J	.
=111	=111	=111
8G\L	2b-\ 2bb-\	.
8B-\ 8c\ 8e\J	.	.
8C\L	.	.
8B-\ 8c\ 8e\J	.	.
=112	=112	=112
8G\L	4a\ 4aa\	.
8B-\ 8c\ 8e\J	.	.
8C\L	4g\ 4gg\	.
8B-\ 8c\ 8e\J	.	.
=113	=113	=113
8F\L	8a\ 8aa\L	.
8A\ 8c\ 8f\J	8cc\ 8ccc\J	.
8C\L	4cc\ 4ccc\	.
8A\ 8c\J	.	.
=114	=114	=114
2C^\ 2B-^\ 2c^\	8r	.
.	8ccc\L	.
.	8gg\ 8ggg\	.
.	8ccc\J	.
=115	=115	=115
8FF\ 8F\L	2ff\ 2fff\	.
8A\ 8c\	.	.
8C\	.	.
8A\ 8c\J	.	.
=116	=116	=116
8F\L	4ee\ 4eee\	.
8A\ 8c\J	.	.
8C\L	4a\ 4aa\	.
8A\ 8c\J	.	.
=117	=117	=117
8F\L	8dd\ 8ddd\L	.
8A\ 8c\J	8a\ 8aa\J	.
8C\L	4a\ 4aa\	.
8A\ 8c\J	.	.
=118	=118	=118
8F\L	8r	.
8A\ 8c\J	8a\ 8aa\L	.
8C\L	8g\ 8gg\	.
8A\ 8c\J	8f\ 8ff\J	.
=119	=119	=119
*	*^	*
8BB-\L	[2ddd-/	8dd-\L	.
8F\ 8B-\ 8d-\J	.	16dd-\ 16ff\L	.
.	.	16dd-\ 16ff\JJ	.
8BB-\L	.	8dd-\ 8ff\L	.
8F\ 8B-\ 8d-\J	.	8dd-\ 8ff\J	.
=120	=120	=120	=120
8C\L	8ddd-/]	8ddd-\L	.
8B-\ 8c\J	4.r	8cc\ 8ee\	.
8C\L	.	8cc'\ 8gg'\	.
8G\ 8B-\ 8c\J	.	8cc'\ 8ccc'\J	.
=121	=121	=121	=121
8F\ 8A\ 8c\	2ff/ [2fff/	8r	.
8FF^/ 8F^/L	.	8aa\ 8ccc\L	.
8CC/ 8C/	.	8aa\ 8ccc\	.
8AAA/ 8AA/J	.	8aa\ 8ccc\J	.
*	*v	*v	*
=122	=122	=122
8FFF^/ 8FF^/	8ff\ 8aa\ 8ccc\ 8fff\]	.
8r	8r	.
4r	4r	.
==	==	==
*-	*-	*-
!!!ENC: Craig Stuart Sapp
!!!END: 2006/06/14/
